app/assets/images/icons/active/add.svg

<svg width="32" height="232" viewBox="0 0 32 232" xmlns="http://www.w3.org/2000/svg" xmlns:sketch="http://www.bohemiancoding.com/sketch/ns"><title>add</title><g sketch:type="MSPage" fill="none"><path d="M17.963 134.537h-.073v-10.537h-3.855l-.002 10.537h-10.533v3.857l10.535-.002v.072h.07v10.536h3.858v-10.536h10.537l-.002-3.855h-10.535v-.072" fill="#206FAC" sketch:type="MSShapeGroup"/><path d="M17.963 94.537h-.073v-10.537h-3.855l-.002 10.537h-10.533v3.857l10.535-.002v.072h.07v10.536h3.858v-10.536h10.537l-.002-3.855h-10.535v-.072" fill="#fff" sketch:type="MSShapeGroup"/><path d="M17.963 54.537h-.073v-10.537h-3.855l-.002 10.537h-10.533v3.857l10.535-.002v.072h.07v10.536h3.858v-10.536h10.537l-.002-3.855h-10.535v-.072" fill="#67737B" sketch:type="MSShapeGroup"/><path d="M17.963 14.537h-.073v-10.537h-3.855l-.002 10.537h-10.533v3.857l10.535-.002v.072h.07v10.536h3.858v-10.536h10.537l-.002-3.855h-10.535v-.072" fill="#3A434E" sketch:type="MSShapeGroup"/></g></svg>

<?xml version="1.0" encoding="UTF-8" standalone="no"?>
<svg width="32px" height="232px" viewBox="0 0 32 232" version="1.1" xmlns="http://www.w3.org/2000/svg" xmlns:xlink="http://www.w3.org/1999/xlink" xmlns:sketch="http://www.bohemiancoding.com/sketch/ns">
    <title>add</title>
    <description>Created with Sketch (http://www.bohemiancoding.com/sketch)</description>
    <defs></defs>
    <g id="Actions" stroke="none" stroke-width="1" fill="none" fill-rule="evenodd" sketch:type="MSPage">
        <path d="M17.963,134.537 L17.89,134.537 L17.89,124 L14.035,124 L14.033,134.537 L3.5,134.537 L3.5,138.394 L14.035,138.392 L14.035,138.464 L14.105,138.464 L14.105,149 L17.963,149 L17.963,138.464 L28.5,138.464 L28.498,134.609 L17.963,134.609 L17.963,134.537" id="add--lp-blue" fill="#206FAC" sketch:type="MSShapeGroup"></path>
        <path d="M17.963,94.537 L17.89,94.537 L17.89,84 L14.035,84 L14.033,94.537 L3.5,94.537 L3.5,98.394 L14.035,98.392 L14.035,98.464 L14.105,98.464 L14.105,109 L17.963,109 L17.963,98.464 L28.5,98.464 L28.498,94.609 L17.963,94.609 L17.963,94.537" id="add--white" fill="#FFFFFF" sketch:type="MSShapeGroup"></path>
        <path d="M17.963,54.537 L17.89,54.537 L17.89,44 L14.035,44 L14.033,54.537 L3.5,54.537 L3.5,58.394 L14.035,58.392 L14.035,58.464 L14.105,58.464 L14.105,69 L17.963,69 L17.963,58.464 L28.5,58.464 L28.498,54.609 L17.963,54.609 L17.963,54.537" id="add--body-grey" fill="#67737B" sketch:type="MSShapeGroup"></path>
        <path d="M17.963,14.537 L17.89,14.537 L17.89,4 L14.035,4 L14.033,14.537 L3.5,14.537 L3.5,18.394 L14.035,18.392 L14.035,18.464 L14.105,18.464 L14.105,29 L17.963,29 L17.963,18.464 L28.5,18.464 L28.498,14.609 L17.963,14.609 L17.963,14.537" id="add--title-grey" fill="#3A434E" sketch:type="MSShapeGroup"></path>
    </g>
</svg>
